!!!COM: Josephine Lang
!!!CNT: Deutsch
!!!TXO: Deutsch
!!!OTL: Fru2hzeitiger Fru2hling
!!!LYR: Goethe
!!!OPR: Vier deutsche lieder
!!!OPS: Op. 6
!!!ONM: No. 3
!!!ENC: Ben Fuhrman
!!!YOR: Frauen komponieren: 25 Lieder fu2r Singstimme und Klavier
!!!YOR: Mainz, B. Schott's So2hne, 1992.
!!!ODT: 1830 (opus number added upon publication in 1867)
!!NB: Only vocal melody encoded.
!!NB: First instance of melodic material only encoded.
!!created: 2/16/10 1:52PM
!!proofed and posted: 2/16/10 1:52PM
**kern	**silbe
*clef G2	*
*k[f#c#g#d#a#]	*
*M4/4	*
*MM[Allegro agitato]	*
=5	=5
{[4dd#	{Ta-
12dd#]	|
12cc#	-ge
12b	der
4an	Won-
4g#	-ne,
=6	=6
[4g#	kommt
12g#]	|
12a#	ihr
12b#	so
2cc#}	bald?}
=7	=7
{4ee	{Schenkt
6dd#	mir
12dd#	die
4cc#	Son-
4b	-ne
=8	=8
[4a#	Hu2-
12a#]	|
12b	-gel
12a#	und
2d#}	Wald?}
=9	=9
{4f#	{Reich-
6f#	-li-
12f#	-cher
4f#	flie-
4f#	-ssen
=10	=10
[4ff#	Ba2ch
12ff#]	|
12cc#	-lein
12a	zu-
2f#}	-mal,}
=11	=11
{4dd#	{sind
6dd#	es
12dd#	die
4dd#	Wie-
4g#	-sen?
=12	=12
[4f#	Ist
12f#]	|
12f#	es
12g#	das
2a#}	Tal?}
=13	=13
{4a#	{Sind
12b	es
12r	.
12b	die
4cc#	Wie-
4dd#	-sen?
=14	=14
(6g#	ist
12b)	|
12a#	es
12r	.
12cc#	das
2b}	Tal?}
==	==
*-	*-
